svg/movie_outline.svg

<svg xmlns="http://www.w3.org/2000/svg" viewBox="0 0 24 24"><path d="M5.76 10H20v8H4V6.47M22 4h-4l2 4h-3l-2-4h-2l2 4h-3l-2-4H8l2 4H7L5 4H4a2 2 0 0 0-2 2v12a2 2 0 0 0 2 2h16a2 2 0 0 0 2-2z"/></svg>

<?xml version="1.0" encoding="UTF-8"?><!DOCTYPE svg PUBLIC "-//W3C//DTD SVG 1.1//EN" "http://www.w3.org/Graphics/SVG/1.1/DTD/svg11.dtd"><svg xmlns="http://www.w3.org/2000/svg" xmlns:xlink="http://www.w3.org/1999/xlink" version="1.1" id="mdi-movie-outline" width="24" height="24" viewBox="0 0 24 24"><path d="M5.76,10H20V18H4V6.47M22,4H18L20,8H17L15,4H13L15,8H12L10,4H8L10,8H7L5,4H4A2,2 0 0,0 2,6V18A2,2 0 0,0 4,20H20A2,2 0 0,0 22,18V4Z" /></svg>
